icon/gr/chrome.svg

<svg xmlns="http://www.w3.org/2000/svg" viewBox="0 0 24 24" height="1em" width="1em">
  <g fill="none" fill-rule="evenodd">
    <path fill="#4285F4" d="M11.9733005,16.4144516 C9.59429509,16.4144516 7.65884342,14.4788121 7.65884342,12.0999945 C7.65884342,9.72075429 9.59429509,7.78530262 11.9733005,7.78530262 C14.3523059,7.78530262 16.2879454,9.72075429 16.2879454,12.0999945 C16.2879924,14.4788121 14.3523529,16.4144516 11.9733005,16.4144516 L11.9733005,16.4144516 Z"/>
    <path fill="#4AAE48" d="M13.7910066,17.1810894 C13.1872494,17.4007528 12.5549364,17.5116882 11.9068426,17.5116882 C10.6352186,17.5116882 9.39370022,17.0652225 8.41129728,16.2548117 C7.61431896,15.5972306 7.02033082,14.7318218 6.69297277,13.7500294 L6.691235,13.7442055 L1.93641793,5.50854377 C0.228238232,8.1357683 -0.377867323,11.2684017 0.230163868,14.3493248 C0.849467072,17.4870306 2.65331799,20.1955546 5.30970885,21.9764857 C6.69353637,22.9040785 8.22657716,23.5227711 9.86735961,23.8160783 L13.7910066,17.1810894 L13.7910066,17.1810894 Z"/>
    <path fill="#EA3939" d="M22.7599128,6.70666487 C19.7903479,0.731840215 12.5393434,-1.70437065 6.56465968,1.26519432 C5.01832731,2.03375777 3.65958002,3.12347966 2.57441389,4.45616042 L6.59105498,11.413435 C6.85172029,9.39264477 8.25048322,7.60626547 10.3219975,6.95469613 C10.8217704,6.79763941 11.341739,6.71403864 11.865371,6.70666487 L22.7599128,6.70666487 Z"/>
    <path fill="#FED14B" d="M11.9264747,24 C14.936431,24 17.8171819,22.8712018 20.0368292,20.8218558 C22.2681243,18.7619893 23.6231612,15.9588274 23.8523118,12.9290041 C23.983349,11.1937716 23.7261592,9.41711443 23.1082181,7.78530262 L15.2520944,7.78530262 C16.5738788,8.83162726 17.3494403,10.4306093 17.3416908,12.1250278 C17.3360548,13.3449884 16.9177692,14.5439079 16.1598672,15.5064909 L11.1518525,23.9751076 C11.4097938,23.9916399 11.6696606,24 11.926052,24 L11.9264747,24 L11.9264747,24 Z"/>
  </g>
</svg>

<svg xmlns="http://www.w3.org/2000/svg" width="24" height="24"><g fill="none" fill-rule="evenodd"><path fill="#4285F4" d="M11.973 16.414A4.32 4.32 0 0 1 7.66 12.1a4.32 4.32 0 0 1 4.314-4.315 4.32 4.32 0 0 1 4.315 4.315 4.32 4.32 0 0 1-4.315 4.314Z"/><path fill="#4AAE48" d="M13.791 17.181a5.507 5.507 0 0 1-5.38-.926 5.496 5.496 0 0 1-1.718-2.505l-.002-.006L1.936 5.51a11.892 11.892 0 0 0-1.706 8.84 11.896 11.896 0 0 0 5.08 7.627 11.894 11.894 0 0 0 4.557 1.84l3.924-6.635Z"/><path fill="#EA3939" d="M22.76 6.707a12.08 12.08 0 0 0-20.185-2.25l4.016 6.956a5.393 5.393 0 0 1 5.274-4.706H22.76Z"/><path fill="#FED14B" d="M11.926 24c3.01 0 5.891-1.129 8.11-3.178a11.932 11.932 0 0 0 3.816-7.893 12.05 12.05 0 0 0-.744-5.144h-7.856a5.506 5.506 0 0 1 2.09 4.34 5.529 5.529 0 0 1-1.182 3.381l-5.008 8.47c.258.016.518.024.774.024Z"/></g></svg>
